X: 28604
T: Mushroom, The
R: hornpipe
M: 4/4
K: Amajor
|:(3efg|aece fecB|AA,CE FECE|(3FGA BG ABcA|Bcec ef (3gab|
aece fecB|AA,CE FECE|AECE FAGE|(3FGA (3GAB A2:|
|:ce|fage fece|ACEA efgb|afge fece|(3dcB (3AGF E2 (3efg|
aece fecB|AA,CE FECE|AECE FAGE|1 (3FGA (3GAB A2:|2 (3agf (3ecB A2||

